X:1
T:Reel [102]
T:Untitled
M:C
L:1/8
R:Reel
B:Stephen Grier music manuscript  collection (Book 2, c. 1883, No. 276, p. 57)
B: http://grier.itma.ie/book-two#?c=0&m=0&s=0&cv=56&z=196.6739%2C234.6061%2C2732.1854%2C1107.1727
N:Stephen Grier (c. 1824-1894) was a piper and fiddler from
N:Newpark, Bohey, Gortletteragh, south Co. Leitrim.
Z:AK/Fiddler’s Companion
K:G
G2 BG G2 BG|A2  cA A2 cA|c2 ec B2 dB|A2 BA GE E2:|
|:dedc Bd g2|ed ef/g/ eA A2|dedc Bd g2|edef gG G2edef gedc:|
|:B2 BG AEGE|DEGB AGEG|DEGA BABd|edBG A2 dc|edBG A2 G2:|]

